**kern	**kern	**dynam
*part1	*part1	*part1
*staff2	*staff1	*
*I"Piano	*	*
*clefF4	*clefG2	*
*k[b-e-a-]	*k[b-e-a-]	*
*M3/8	*M3/8	*
=1	=1	=1
(4B-'	(4d' 4f 4b-	mf
8A-')	8e-') 8a- 8cc	.
=	=	=
(8E-'L	(4g' 4b- 4ee-	.
8F'	.	.
8G'J)	8f') 8b- 8dd	.
=	=	=
(4A-'	(4e-' 4a- 4cc	.
8G')	8f') 8b- 8dd	.
=	=	=
(8F'L	(4a-' 4cc 4ff	.
8G'	.	.
8A-'J)	8g') 8cc 8ee-	.
=	=	=
(4B-'	(4f' 4b- 4dd	.
8A-')	8g') 8cc 8ee-	.
=	=	=
(4G'	(8b-'L 8dd 8gg	.
.	8a-' 8cc 8ff	.
8A-')	8g'J) 8cc 8ee-	.
=	=	=
(4B-'	(8g'L 8b- 8ee-	.
.	8a-' 8b- 8ff	.
8BB-')	8f'J) 8a- 8dd	.
=	=	=
4.E-'	4.e- 4.g 4.ee-	.
=	=	=
*-	*-	*-
!!!system-decoration: {(s1,s2)}
